icons/evolvere-blue-folders-flat-vivid-dark-fallback/apps/64/sound-converter.svg

<?xml version="1.0" encoding="UTF-8" standalone="no"?>
<!-- Created with Inkscape (http://www.inkscape.org/) -->

<svg
   xmlns:dc="http://purl.org/dc/elements/1.1/"
   xmlns:cc="http://creativecommons.org/ns#"
   xmlns:rdf="http://www.w3.org/1999/02/22-rdf-syntax-ns#"
   xmlns:svg="http://www.w3.org/2000/svg"
   xmlns="http://www.w3.org/2000/svg"
   xmlns:xlink="http://www.w3.org/1999/xlink"
   xmlns:sodipodi="http://sodipodi.sourceforge.net/DTD/sodipodi-0.dtd"
   xmlns:inkscape="http://www.inkscape.org/namespaces/inkscape"
   width="64"
   height="64"
   id="svg13094"
   version="1.1"
   inkscape:version="0.91+devel r"
   sodipodi:docname="sound-converter.svg">
  <sodipodi:namedview
     id="base"
     pagecolor="#ffffff"
     bordercolor="#666666"
     borderopacity="1.0"
     inkscape:pageopacity="0"
     inkscape:pageshadow="2"
     inkscape:zoom="11.313709"
     inkscape:cx="26.366002"
     inkscape:cy="30.717657"
     inkscape:document-units="px"
     inkscape:current-layer="svg13094"
     showgrid="true"
     inkscape:snap-bbox="true"
     inkscape:bbox-paths="true"
     inkscape:bbox-nodes="true"
     inkscape:snap-bbox-edge-midpoints="true"
     inkscape:snap-bbox-midpoints="true"
     inkscape:object-paths="true"
     inkscape:snap-intersection-paths="true"
     inkscape:object-nodes="true"
     inkscape:snap-smooth-nodes="true"
     inkscape:snap-midpoints="true"
     inkscape:snap-object-midpoints="true"
     inkscape:snap-center="true"
     showguides="true"
     inkscape:guide-bbox="true"
     inkscape:window-width="1920"
     inkscape:window-height="1023"
     inkscape:window-x="-10"
     inkscape:window-y="35"
     inkscape:window-maximized="1"
     inkscape:snap-global="true"
     fit-margin-top="0"
     fit-margin-left="0"
     fit-margin-right="0"
     fit-margin-bottom="0"
     showborder="true"
     inkscape:showpageshadow="false"
     inkscape:snap-page="true">
    <inkscape:grid
       type="xygrid"
       id="grid3075"
       empspacing="5"
       visible="true"
       enabled="true"
       snapvisiblegridlinesonly="true"
       originx="1.6362304e-08px"
       originy="18px" />
  </sodipodi:namedview>
  <defs
     id="defs13096">
    <linearGradient
       id="linearGradient3800-4">
      <stop
         style="stop-color:#44ecff;stop-opacity:0.22495152;"
         offset="0"
         id="stop3802-0" />
      <stop
         id="stop3808-7"
         offset="0.5"
         style="stop-color:#4aefff;stop-opacity:0.11829347;" />
      <stop
         style="stop-color:#6af4ff;stop-opacity:0.05042017;"
         offset="0.75"
         id="stop3810-8" />
      <stop
         style="stop-color:#4df5ff;stop-opacity:0;"
         offset="1"
         id="stop3804-9" />
    </linearGradient>
    <radialGradient
       inkscape:collect="always"
       xlink:href="#linearGradient3800-4"
       id="radialGradient4068"
       gradientUnits="userSpaceOnUse"
       gradientTransform="matrix(1.5610684,1.5204966e-8,0,0.18746473,-11.770879,26.369264)"
       cx="26.311583"
       cy="42.442974"
       fx="26.311583"
       fy="42.442974"
       r="32" />
    <radialGradient
       inkscape:collect="always"
       xlink:href="#linearGradient3800-4"
       id="radialGradient4071"
       gradientUnits="userSpaceOnUse"
       gradientTransform="matrix(0.6161622,0,0,0.84635893,9.212107,5.1265794)"
       cx="21.274454"
       cy="32.828899"
       fx="21.274454"
       fy="32.828899"
       r="32" />
  </defs>
  <metadata
     id="metadata13099">
    <rdf:RDF>
      <cc:Work
         rdf:about="">
        <dc:format>image/svg+xml</dc:format>
        <dc:type
           rdf:resource="http://purl.org/dc/dcmitype/StillImage" />
        <dc:title></dc:title>
      </cc:Work>
    </rdf:RDF>
  </metadata>
  <path
     inkscape:connector-curvature="0"
     style="color:#000000;fill:url(#radialGradient4071);fill-opacity:1;fill-rule:nonzero;stroke:none;stroke-width:2.28571415;marker:none;visibility:visible;display:inline;overflow:visible;enable-background:accumulate"
     d="M 0,4.0000001 0,34 l 0,28 2,2 30,0 30,0 2,-2 0,-28 0,-29.9999999 -32,0 -32,0 z"
     id="path3812" />
  <path
     id="path4095"
     d="m 0,4 0,30 0,28 2,2 30,0 30,0 2,-2 L 64,34 64,4 32,4 0,4 z"
     style="color:#000000;fill:url(#radialGradient4068);fill-opacity:1;fill-rule:nonzero;stroke:none;stroke-width:2.28571415;marker:none;visibility:visible;display:inline;overflow:visible;enable-background:accumulate"
     inkscape:connector-curvature="0" />
  <path
     id="path5441"
     d="m 0,4 0,30 0,28 2,2 30,0 30,0 2,-2 L 64,34 64,4 32,4 0,4 z"
     style="color:#000000;fill:#238b86;fill-opacity:1;fill-rule:nonzero;stroke:none;stroke-width:2.28571415;marker:none;visibility:visible;display:inline;overflow:visible;enable-background:accumulate"
     inkscape:connector-curvature="0" />
  <path
     inkscape:connector-curvature="0"
     style="color:#000000;fill:#32d3bb;fill-opacity:1;fill-rule:nonzero;stroke:none;stroke-width:2.28571415;marker:none;visibility:visible;display:inline;overflow:visible;enable-background:accumulate"
     d="M 2,0 0,1 0,4 32,4 64,4 64,1 62,0 32,0 2,0 z"
     id="path4090" />
  <path
     style="fill:#67decd;fill-opacity:1;fill-rule:nonzero"
     d="M 0,3 0,6 2,4 Z"
     id="path4298"
     inkscape:connector-curvature="0"
     sodipodi:nodetypes="cccc" />
  <path
     d="M 64,6 62,4 64,3 z"
     id="path3028"
     style="fill:#2dab9d;fill-opacity:1"
     inkscape:connector-curvature="0" />
  <g
     id="g3043"
     inkscape:export-filename="folder.png"
     inkscape:export-xdpi="90"
     inkscape:export-ydpi="90"
     transform="translate(-0.62500009,0.082283)" />
  <g
     id="scalable"
     transform="matrix(1.0385892,0,0,1.0385892,1214.7222,1878.8121)"
     inkscape:label="#g3701"
     style="fill:#ffffff" />
  <path
     sodipodi:nodetypes="cccccccccccscccccccccccccccccccccsc"
     inkscape:connector-curvature="0"
     d="M 48.69814,46.090167 54.821864,49.6257 51.28633,55.749425 M 54.821864,49.6257 37.4352,54.284442 M 15.30186,21.909834 9.1781359,18.374301 12.71367,12.250576 M 9.1781359,18.374301 26.5648,13.715559 m 0,-1e-6 C 37.767588,10.71378 49.282664,17.362012 52.284442,28.5648 52.759431,30.337483 53,32.164783 53,34 l -6.588647,-0.178552 -1.12987,-2.403227 -2.259745,6.008069 -2.259743,-10.960161 0,7.355319 L 39.632122,31.418221 38.4643,36.625214 36.242504,30.617145 35.112632,41.03113 33.982761,27.012304 31.855443,32.619835 30.593143,29.81607 29.652489,40.230055 28.333399,24.281429 26.073654,42.633282 23.813912,29.81607 22.684037,36.625214 21.554166,26.193041 19.294422,33.821448 11,34 c 0,1.835217 0.240569,3.662517 0.715558,5.435201 3.001778,11.202787 14.516854,17.85102 25.719642,14.849242"
     style="color:#000000;fill:none;stroke:#aafffd;stroke-width:1.5;stroke-linecap:butt;stroke-linejoin:round;stroke-miterlimit:4;stroke-opacity:1;stroke-dasharray:none;stroke-dashoffset:0;marker:none;visibility:visible;display:inline;overflow:visible;enable-background:accumulate"
     id="path4036" />
</svg>

<svg xmlns="http://www.w3.org/2000/svg" xmlns:xlink="http://www.w3.org/1999/xlink" viewBox="0 0 64 64"><defs><path id="3" d="m0 4v30 28l2 2h30 30l2-2v-28-30h-32-32"/><linearGradient id="0"><stop stop-color="#44ecff" stop-opacity=".225"/><stop offset=".5" stop-color="#4aefff" stop-opacity=".118"/><stop offset=".75" stop-color="#6af4ff" stop-opacity=".05"/><stop offset="1" stop-color="#4df5ff" stop-opacity="0"/></linearGradient><radialGradient xlink:href="#0" id="1" gradientUnits="userSpaceOnUse" gradientTransform="matrix(1.56107 0 0 .18746-11.771 26.369)" cx="26.312" cy="42.44" r="32"/><radialGradient xlink:href="#0" id="2" gradientUnits="userSpaceOnUse" gradientTransform="matrix(.61616 0 0 .84636 9.212 5.127)" cx="21.274" cy="32.829" r="32"/></defs><g color="#000"><use fill="url(#2)" xlink:href="#3"/><use fill="url(#1)" xlink:href="#3"/><use fill="#238b86" xlink:href="#3"/><path d="m2 0l-2 1v3h32 32v-3l-2-1h-30-30" fill="#32d3bb"/></g><path d="m0 3v3l2-2" fill="#67decd"/><path d="m64 6l-2-2 2-1z" fill="#2dab9d"/><path d="m48.698 46.09l6.124 3.536-3.536 6.124m3.536-6.124l-17.387 4.659m-22.13-32.375l-6.124-3.536 3.536-6.124m-3.536 6.124l17.387-4.659m0 0c11.203-3 22.718 3.646 25.72 14.849.475 1.773.716 3.6.716 5.435l-6.589-.179-1.13-2.403-2.26 6.01-2.26-10.96v7.355l-1.13-2.403-1.168 5.207-2.222-6.01-1.13 10.414-1.13-14.02-2.127 5.608-1.262-2.804-.941 10.414-1.319-15.949-2.26 18.352-2.26-12.817-1.13 6.809-1.13-10.432-2.26 7.628-8.294.179c0 1.835.241 3.663.716 5.435 3 11.203 14.517 17.851 25.72 14.849" fill="none" stroke="#aafffd" stroke-linejoin="round" color="#000" stroke-width="1.5"/></svg>
